X:051
T:Hornpipe TS.051
M:C|
L:1/8
Q:1/2=88
S:Thomas Sands’ MS,1810,Lincolnshire
R:.hornpipe
O:England;Lincolnshire
Z:vmp.Ruairidh Greig, 2011
K:Bb
“s-qu. in ms”(FE)|DB,DF Bgfe|dcBA B2cd|ecBA dBAG|FDB,D (3EGF (3EDC|
B,DFA Bgfd|edcB g2ga|bagf df=eg|f2f2f2:|
|:(3fga|bfed e2ef|gedcd2df|gaba gfed|cBAG FEDC|
B,DFA Bgfd|edcB gabg|edcB GBAc|B2B2B2:|]

